packages/opendesign/src/icons/svgs/fill/add.svg

<?xml version="1.0" encoding="UTF-8"?>
<svg width="24px" height="24px" viewBox="0 0 24 24" version="1.1" xmlns="http://www.w3.org/2000/svg" xmlns:xlink="http://www.w3.org/1999/xlink">
    <title>add</title>
    <g id="add" stroke="none" stroke-width="1" fill="none" fill-rule="evenodd">
        <path d="M12.125,2.15 C12.4232338,2.15 12.6706468,2.36758961 12.717147,2.65267688 L12.725,2.75 L12.725,21.25 C12.725,21.5813708 12.4563708,21.85 12.125,21.85 C11.8267662,21.85 11.5793532,21.6324104 11.532853,21.3473231 L11.525,21.25 L11.525,12.824 L2.75,12.825 C2.36340068,12.825 2.05,12.5115993 2.05,12.125 C2.05,11.7706173 2.31334362,11.4777418 2.65501415,11.4313902 L2.75,11.425 L11.525,11.424 L11.525,2.75 C11.525,2.41862915 11.7936292,2.15 12.125,2.15 Z M21.25,11.525 C21.5813708,11.525 21.85,11.7936292 21.85,12.125 C21.85,12.4232338 21.6324104,12.6706468 21.3473231,12.717147 L21.25,12.725 L14,12.724 L14,11.525 L21.25,11.525 Z" id="path1" fill="#000000" fill-rule="nonzero"></path>
    </g>
</svg>

<!-- Generated by IcoMoon.io -->
<svg version="1.1" xmlns="http://www.w3.org/2000/svg" width="24" height="24" viewBox="0 0 24 24">
<title>add</title>
<path d="M12.125 2.15c0.298 0 0.546 0.218 0.592 0.503l0.008 0.097v18.5c0 0.331-0.269 0.6-0.6 0.6-0.298 0-0.546-0.218-0.592-0.503l-0.008-0.097v-8.426l-8.775 0.001c-0.387 0-0.7-0.313-0.7-0.7 0-0.354 0.263-0.647 0.605-0.694l0.095-0.006 8.775-0.001v-8.674c0-0.331 0.269-0.6 0.6-0.6zM21.25 11.525c0.331 0 0.6 0.269 0.6 0.6 0 0.298-0.218 0.546-0.503 0.592l-0.097 0.008-7.25-0.001v-1.199h7.25z"></path>
</svg>
